icons/checklist-16.svg

<svg width="16" height="16" viewBox="0 0 16 16" xmlns="http://www.w3.org/2000/svg">
  <path fill-rule="evenodd" clip-rule="evenodd" d="M2.5 1.75C2.5 1.61193 2.61193 1.5 2.75 1.5H11.25C11.3881 1.5 11.5 1.61193 11.5 1.75V9.48645C11.5 9.90067 11.8358 10.2365 12.25 10.2365C12.6642 10.2365 13 9.90067 13 9.48645V1.75C13 0.783502 12.2165 0 11.25 0H2.75C1.7835 0 1 0.783502 1 1.75V13.25C1 14.2165 1.7835 15 2.75 15H5.92083C6.33504 15 6.67083 14.6642 6.67083 14.25C6.67083 13.8358 6.33504 13.5 5.92083 13.5H2.75C2.61193 13.5 2.5 13.3881 2.5 13.25V1.75ZM4.75 4C4.33579 4 4 4.33579 4 4.75C4 5.16421 4.33579 5.5 4.75 5.5H9.25C9.66421 5.5 10 5.16421 10 4.75C10 4.33579 9.66421 4 9.25 4H4.75ZM4 7.75C4 7.33579 4.33579 7 4.75 7H6.75C7.16421 7 7.5 7.33579 7.5 7.75C7.5 8.16421 7.16421 8.5 6.75 8.5H4.75C4.33579 8.5 4 8.16421 4 7.75ZM15.774 11.2866C16.0703 10.9972 16.076 10.5223 15.7866 10.226C15.4972 9.92965 15.0223 9.92402 14.726 10.2134L10.7003 14.1447L9.28127 12.7206C8.98889 12.4272 8.51402 12.4264 8.22061 12.7187C7.9272 13.0111 7.92636 13.486 8.21873 13.7794L10.1618 15.7294C10.4521 16.0207 10.9229 16.0239 11.2171 15.7366L15.774 11.2866Z"/>
</svg>

<svg xmlns="http://www.w3.org/2000/svg" width="16" height="16" viewBox="0 0 16 16"><path fill-rule="evenodd" d="M2.5 1.75a.25.25 0 01.25-.25h8.5a.25.25 0 01.25.25v7.736a.75.75 0 101.5 0V1.75A1.75 1.75 0 0011.25 0h-8.5A1.75 1.75 0 001 1.75v11.5c0 .966.784 1.75 1.75 1.75h3.17a.75.75 0 000-1.5H2.75a.25.25 0 01-.25-.25V1.75zM4.75 4a.75.75 0 000 1.5h4.5a.75.75 0 000-1.5h-4.5zM4 7.75A.75.75 0 014.75 7h2a.75.75 0 010 1.5h-2A.75.75 0 014 7.75zm11.774 3.537a.75.75 0 00-1.048-1.074L10.7 14.145 9.281 12.72a.75.75 0 00-1.062 1.058l1.943 1.95a.75.75 0 001.055.008l4.557-4.45z"/></svg>
